X:92
M:6/8
L:1/8
K:D
f/e/|d2A AFA|AFA Afe|d2A AGF|EFE  Efe|e2A AF(A|A)FA AGF|GAB AGF|1
EFE E2:|2 EFE GFE|:D<EF F>EF|DEF GFE|D>EF F>EF|EFE GFE|

